X:1
T:Must I then?
B:Singing Together, Spring 1976, BBC Publications
F:http://www.folkinfo.org/songs
M:2/4     %Meter
Q:1/4=80
L:1/16     %
K:D
DE |F2FA G2GB |A2(AG) F4 |A2(AG) F2(FA) |
w:Must I then, must I then, Leave this lit-tle_ town, lit-tle_ town, And_
G2G2 E2A2 |F6 DE |F2FA G2GB |A2AG F4 |
w:you, my dear, stay here? If I come, if I come, If I come back a-gain,
A2AG F2(FA) |G2G2 E2A2 |F6 DF |E3G G2E2 |
w:come back a-gain, To_ you I'll rush, my dear. If I can-not al-ways
F3G A2AA |B2B2 d2(cB) |A6 DE |F2FA G2GB |
w:be right near, Still your love's my joy, I_ swear; If I come, if I come, If I
A2AG F4 |A2AG F2(FA) |G2G2 E2A2 |F6 z2 |]
w:come back a-gain, come back a-gain, To_ you I'll rush my dear.
